X:118
T: LASS DIE TOEN ERKLINGEN
N: F0237
O: Europa, Mitteleuropa, Deutschland
R: Jugend - Lied, Geschwister - Liebe
M: 2/4
L: 1/16
K: F
 | A2A2A2A2 | c3BA4 |
c2A2B2G2 | A4z4 |
B2B2A2A2 | d3ef4 |
c2A2B2G2 | F4z4

@@@ Tune index: 5549
